svg-design-demo/src/assets/img/1_8Aframe02_development.svg

<?xml version="1.0" encoding="UTF-8" standalone="no"?>
<svg
   xmlns:dc="http://purl.org/dc/elements/1.1/"
   xmlns:cc="http://creativecommons.org/ns#"
   xmlns:rdf="http://www.w3.org/1999/02/22-rdf-syntax-ns#"
   xmlns:svg="http://www.w3.org/2000/svg"
   xmlns="http://www.w3.org/2000/svg"
   width="210mm"
   height="297mm"
   viewBox="0 0 210 297"
   version="1.1"
   id="svg133">
  <defs
     id="defs127" />
  <metadata
     id="metadata130">
    <rdf:RDF>
      <cc:Work
         rdf:about="">
        <dc:format>image/svg+xml</dc:format>
        <dc:type
           rdf:resource="http://purl.org/dc/dcmitype/StillImage" />
        <dc:title></dc:title>
      </cc:Work>
    </rdf:RDF>
  </metadata>
  <g
     id="layer1">
    <path
       id="rect4843"
       d="M -4.6037934 23.613402 v 227.99973799999998 h 218.0001434 v -227.99973799999998 Z M 3.3959946 31.613192 h 63.9999544 v 212.000158 h -63.9999544 Z M 75.39628599999999 31.613192 h 23.999916000000013 v 212.000158 h -23.999916 Z M 108.39643999999998 31.613192 h 23.999920000000003 v 212.000158 h -23.999920000000003 Z M 140.39614999999998 31.613192 h 63.99995000000001 v 212.000158 h -63.99995000000001 Z"
       style="fill:#666666;fill-rule:evenodd;stroke:none;stroke-width:0.282222px;stroke-linecap:butt;stroke-linejoin:miter;stroke-opacity:1" />
  </g>
</svg>

<?xml version="1.0" encoding="UTF-8" standalone="no"?>
<svg
   xmlns:dc="http://purl.org/dc/elements/1.1/"
   xmlns:cc="http://creativecommons.org/ns#"
   xmlns:rdf="http://www.w3.org/1999/02/22-rdf-syntax-ns#"
   xmlns:svg="http://www.w3.org/2000/svg"
   xmlns="http://www.w3.org/2000/svg"
   xmlns:sodipodi="http://sodipodi.sourceforge.net/DTD/sodipodi-0.dtd"
   xmlns:inkscape="http://www.inkscape.org/namespaces/inkscape"
   width="218.00014mm"
   height="227.99974mm"
   viewBox="0 0 218.00014 227.99974"
   version="1.1"
   id="svg133"
   sodipodi:docname="1_8Aframe02_development.svg"
   inkscape:version="1.0.2 (e86c8708, 2021-01-15)">
  <sodipodi:namedview
     pagecolor="#ffffff"
     bordercolor="#666666"
     borderopacity="1"
     objecttolerance="10"
     gridtolerance="10"
     guidetolerance="10"
     inkscape:pageopacity="0"
     inkscape:pageshadow="2"
     inkscape:window-width="718"
     inkscape:window-height="480"
     id="namedview15"
     showgrid="false"
     inkscape:zoom="0.22084132"
     inkscape:cx="414.25056"
     inkscape:cy="472.01234"
     inkscape:window-x="0"
     inkscape:window-y="25"
     inkscape:window-maximized="0"
     inkscape:current-layer="svg133" />
  <defs
     id="defs127" />
  <metadata
     id="metadata130">
    <rdf:RDF>
      <cc:Work
         rdf:about="">
        <dc:format>image/svg+xml</dc:format>
        <dc:type
           rdf:resource="http://purl.org/dc/dcmitype/StillImage" />
        <dc:title />
      </cc:Work>
    </rdf:RDF>
  </metadata>
  <g
     id="layer1"
     transform="translate(4.6037934,-23.613402)">
    <path
       id="rect4843"
       d="M -4.6037934,23.613402 V 251.61314 H 213.39635 V 23.613402 Z m 7.999788,7.99979 H 67.395949 V 243.61335 H 3.3959946 Z m 72.0002914,0 H 99.396202 V 243.61335 H 75.396286 Z m 33.000154,0 h 23.99992 V 243.61335 h -23.99992 z m 31.99971,0 H 204.3961 V 243.61335 h -63.99995 z"
       style="fill:#666666;fill-rule:evenodd;stroke:none;stroke-width:0.282222px;stroke-linecap:butt;stroke-linejoin:miter;stroke-opacity:1" />
  </g>
</svg>
